src/images/svg/symbols/markets-stocks-and-indices/american-stocks/stocks-intel.svg

<svg width="32" height="32" viewBox="0 0 32 32" fill="none" xmlns="http://www.w3.org/2000/svg">
<path d="M0 16C0 7.16344 7.16344 0 16 0C24.8366 0 32 7.16344 32 16C32 24.8366 24.8366 32 16 32C7.16344 32 0 24.8366 0 16Z" fill="#54BFF6"/>
<path d="M5.88908 11.1406H4V13.0352H5.88908V11.1406Z" fill="#2868AF"/>
<path d="M5.84293 21.0123V14.1891H4.05469V21.0123H5.84293ZM17.7287 21.0797V19.4076C17.4665 19.4076 17.2446 19.3941 17.0833 19.3672C16.895 19.3402 16.7539 19.2728 16.6597 19.1784C16.5656 19.084 16.5051 18.9491 16.4715 18.7738C16.4446 18.6053 16.4312 18.3828 16.4312 18.1131V15.7263H17.7287V14.1891H16.4312V11.5259H14.6362V18.1266C14.6362 18.6862 14.6833 19.1581 14.7774 19.5357C14.8715 19.9065 15.0329 20.2099 15.2547 20.4392C15.4766 20.6684 15.7724 20.8302 16.1287 20.9314C16.4917 21.0325 16.9488 21.0797 17.4934 21.0797H17.7287ZM28.0009 21.0123V11H26.206V21.0123H28.0009ZM12.9085 14.8566C12.411 14.3172 11.7118 14.0475 10.8244 14.0475C10.3942 14.0475 10.0043 14.1352 9.64797 14.3105C9.29839 14.4858 8.99587 14.7285 8.76058 15.0386L8.65974 15.1667V15.0521V14.1891H6.89167V21.0123H8.67318V17.3782V17.6277C8.67318 17.5872 8.67318 17.5467 8.67318 17.5063C8.69335 16.8658 8.84797 16.3938 9.14377 16.0904C9.45974 15.7668 9.84293 15.605 10.2799 15.605C10.7976 15.605 11.1942 15.7668 11.4564 16.0769C11.7118 16.3871 11.8463 16.8253 11.8463 17.3849V17.3984V21.0055H13.6547V17.1355C13.6614 16.1646 13.406 15.396 12.9085 14.8566ZM25.2783 17.5872C25.2783 17.095 25.1909 16.6365 25.0228 16.205C24.848 15.7803 24.606 15.4027 24.3035 15.0791C23.9942 14.7554 23.6245 14.506 23.1942 14.3239C22.764 14.1419 22.2866 14.0542 21.769 14.0542C21.2782 14.0542 20.8144 14.1486 20.3841 14.3307C19.9539 14.5195 19.5774 14.7689 19.2614 15.0858C18.9455 15.4027 18.69 15.7803 18.5085 16.2118C18.3203 16.6433 18.2329 17.1085 18.2329 17.6007C18.2329 18.0929 18.3203 18.5581 18.495 18.9896C18.6698 19.4211 18.9186 19.7987 19.2278 20.1156C19.5371 20.4324 19.9203 20.6886 20.364 20.8707C20.8077 21.0595 21.2984 21.1539 21.8228 21.1539C23.3421 21.1539 24.2833 20.4594 24.848 19.8122L23.5572 18.8278C23.2883 19.1514 22.643 19.5897 21.8362 19.5897C21.332 19.5897 20.9152 19.475 20.5993 19.2391C20.2833 19.0098 20.0682 18.6862 19.9539 18.2884L19.9337 18.2277H25.2783V17.5872ZM19.9471 16.9602C19.9471 16.4612 20.5186 15.5915 21.7488 15.5847C22.9791 15.5847 23.5572 16.4545 23.5572 16.9534L19.9471 16.9602Z" fill="white"/>
</svg>

<svg width="32" height="32" fill="none" xmlns="http://www.w3.org/2000/svg"><path d="M0 16C0 7.163 7.163 0 16 0s16 7.163 16 16-7.163 16-16 16S0 24.837 0 16Z" fill="#54BFF6"/><path d="M5.89 11.14H4v1.895h1.89v-1.894Z" fill="#2868AF"/><path d="M5.843 21.012V14.19H4.055v6.823h1.788Zm11.886.068v-1.672c-.262 0-.484-.014-.646-.04a.73.73 0 0 1-.423-.19.758.758 0 0 1-.189-.404 4.374 4.374 0 0 1-.04-.66v-2.388h1.298V14.19H16.43v-2.663h-1.795v6.6c0 .56.047 1.032.141 1.41.095.37.256.674.478.903.222.23.517.391.874.492.363.101.82.149 1.364.149h.236ZM28 21.012V11h-1.795v10.012h1.795Zm-15.093-6.155c-.497-.54-1.196-.81-2.084-.81-.43 0-.82.088-1.176.263-.35.176-.652.418-.887.729l-.101.128v-.978H6.892v6.823h1.781v-3.634.25-.122c.02-.64.175-1.112.47-1.416.317-.323.7-.485 1.137-.485.518 0 .914.162 1.176.472.256.31.39.748.39 1.308v3.621h1.809v-3.87c.006-.971-.249-1.74-.746-2.28Zm12.37 2.73c0-.492-.087-.95-.255-1.382a3.702 3.702 0 0 0-.72-1.126 3.277 3.277 0 0 0-1.109-.755 3.63 3.63 0 0 0-1.425-.27c-.49 0-.955.095-1.385.277a3.62 3.62 0 0 0-1.123.755 3.519 3.519 0 0 0-.752 1.126 3.439 3.439 0 0 0-.276 1.389c0 .492.087.957.262 1.389.175.431.424.809.733 1.126.31.316.692.573 1.136.755.444.189.934.283 1.459.283 1.52 0 2.46-.695 3.025-1.342l-1.29-.984c-.27.323-.915.762-1.722.762-.504 0-.92-.115-1.237-.35a1.732 1.732 0 0 1-.645-.952l-.02-.06h5.344v-.64Zm-5.33-.627c0-.499.57-1.369 1.8-1.375 1.231 0 1.81.87 1.81 1.368l-3.61.007Z" fill="#fff"/></svg>
